assets/smoking.svg

<?xml version="1.0" encoding="UTF-8"?>
<svg width="20px" height="21px" viewBox="0 0 20 21" version="1.1" xmlns="http://www.w3.org/2000/svg" xmlns:xlink="http://www.w3.org/1999/xlink">
    <!-- Generator: Sketch 47.1 (45422) - http://www.bohemiancoding.com/sketch -->
    <title>Mask</title>
    <desc>Created with Sketch.</desc>
    <defs>
        <path d="M0,4 L6.99,11 L0,11 L0,14 L9.99,14 L16.99,21 L18.25,19.75 L1.25,2.75 L0,4 Z M18.5,11 L20,11 L20,14 L18.5,14 L18.5,11 Z M16,11 L17.5,11 L17.5,14 L16,14 L16,11 Z M16.85,2.88 C17.47,2.27 17.85,1.43 17.85,0.5 L16.35,0.5 C16.35,1.52 15.52,2.35 14.5,2.35 L14.5,3.85 C16.74,3.85 18.5,5.68 18.5,7.92 L18.5,10 L20,10 L20,7.92 C20,5.69 18.72,3.77 16.85,2.88 Z M12.5,6.7 L14.03,6.7 C15.08,6.7 16,7.44 16,8.75 L16,10 L17.5,10 L17.5,8.41 C17.5,6.61 15.9,5.25 14.03,5.25 L12.5,5.25 C11.48,5.25 10.65,4.27 10.65,3.25 C10.65,2.23 11.48,1.5 12.5,1.5 L12.5,0 C10.65,0 9.15,1.5 9.15,3.35 C9.15,5.2 10.65,6.7 12.5,6.7 Z M15,13.93 L15,11 L12.07,11 L15,13.93 Z" id="path-1"></path>
    </defs>
    <g id="Icons" stroke="none" stroke-width="1" fill="none" fill-rule="evenodd">
        <g id="amenitiy-/-smoking" transform="translate(-2.000000, -2.000000)">
            <g id="smoking">
                <g id="Icon-🎨" transform="translate(2.000000, 2.000000)">
                    <mask id="mask-2" fill="white">
                        <use xlink:href="#path-1"></use>
                    </mask>
                    <use id="Mask" fill="#001833" fill-rule="nonzero" xlink:href="#path-1"></use>
                </g>
            </g>
        </g>
    </g>
</svg>

<?xml version="1.0" encoding="utf-8"?>
<!-- Generator: Adobe Illustrator 21.1.0, SVG Export Plug-In . SVG Version: 6.00 Build 0)  -->
<svg version="1.1" id="Layer_1" xmlns="http://www.w3.org/2000/svg" xmlns:xlink="http://www.w3.org/1999/xlink" x="0px" y="0px"
	 viewBox="0 0 20 21" style="enable-background:new 0 0 20 21;" xml:space="preserve">
<style type="text/css">
	.st0{fill:#001833;}
</style>
<path id="path-1_1_" class="st0" d="M0,4l7,7H0v3h10l7,7l1.3-1.2l-17-17L0,4z M18.5,11H20v3h-1.5V11z M16,11h1.5v3H16V11z M16.9,2.9
	c0.6-0.6,1-1.5,1-2.4h-1.5c0,1-0.8,1.8-1.9,1.8v1.5c2.2,0,4,1.8,4,4.1V10H20V7.9C20,5.7,18.7,3.8,16.9,2.9z M12.5,6.7H14
	c1.1,0,2,0.7,2,2.1V10h1.5V8.4c0-1.8-1.6-3.2-3.5-3.2h-1.5c-1,0-1.9-1-1.9-2s0.8-1.8,1.9-1.8V0c-1.9,0-3.4,1.5-3.4,3.3
	S10.6,6.7,12.5,6.7z M15,13.9V11h-2.9L15,13.9z"/>
</svg>
